X: 1
T: Mary's Wedding
M: 4/4
L: 1/8
R: reel
K: Gmaj
|: de | g2gd e2dB| degd e2de| g2gd e2dB| cABG A2 :|
AB| G2GA B2Bd| e2dB dBAB| G2GA B2dB| cABG A2AB|
G2GA B2Bd| e2dB d2de| g2gd e2dB| cABG A2 ||
